packages/foundations/assets/icons/functional/images/social/share_32.svg

<svg width="32" height="32" viewBox="0 0 32 32" fill="none" xmlns="http://www.w3.org/2000/svg">
<g clip-path="url(#clip0_187_419)">
<path fill-rule="evenodd" clip-rule="evenodd" d="M24 4C26.2188 4 28 5.7812 28 8C28 10.2188 26.2188 12 24 12C22.7812 12 21.7188 11.4688 20.9688 10.625L11.9062 15.1562C11.9688 15.4375 12 15.7188 12 16C12 16.2812 11.9688 16.5625 11.9062 16.8438L20.9688 21.375C21.7188 20.5312 22.7812 20 24 20C26.2188 20 28 21.7812 28 24C28 26.2188 26.2188 28 24 28C21.7812 28 20 26.2188 20 24C20 23.7188 20.0312 23.4375 20.0938 23.1562L11 18.625C10.2812 19.4688 9.1875 20 8 20C5.7812 20 4 18.2188 4 16C4 13.7812 5.7812 12 8 12C9.2188 12 10.2812 12.5312 11.0312 13.375L20.0938 8.8438C20.0312 8.5625 20 8.2812 20 8C20 5.7812 21.7812 4 24 4ZM24 22C22.9062 22 22 22.9062 22 24C22 25.0938 22.9062 26 24 26C25.0938 26 26 25.0938 26 24C26 22.9062 25.0938 22 24 22ZM8 14C6.9062 14 6 14.9062 6 16C6 17.0938 6.9062 18 8 18C9.0938 18 10 17.0938 10 16C10 14.9062 9.0938 14 8 14ZM24 6C22.9062 6 22 6.9062 22 8C22 9.0938 22.9062 10 24 10C25.0938 10 26 9.0938 26 8C26 6.9062 25.0938 6 24 6Z" fill="#1A1C1F"/>
</g>
<defs>
<clipPath id="clip0_187_419">
<rect width="32" height="32" fill="white"/>
</clipPath>
</defs>
</svg>

<svg xmlns="http://www.w3.org/2000/svg" width="32" height="32" fill="none"><g clip-path="url(#a)"><path fill="#1A1C1F" fill-rule="evenodd" d="M24 4c2.219 0 4 1.781 4 4s-1.781 4-4 4a4.02 4.02 0 0 1-3.031-1.375l-9.063 4.531a3.9 3.9 0 0 1 0 1.688l9.063 4.531A4.02 4.02 0 0 1 24 20c2.219 0 4 1.781 4 4s-1.781 4-4 4a3.988 3.988 0 0 1-3.906-4.844L11 18.625A3.95 3.95 0 0 1 8 20c-2.219 0-4-1.781-4-4s1.781-4 4-4c1.219 0 2.281.531 3.031 1.375l9.063-4.531A3.988 3.988 0 0 1 24 4m0 18c-1.094 0-2 .906-2 2s.906 2 2 2 2-.906 2-2-.906-2-2-2M8 14c-1.094 0-2 .906-2 2s.906 2 2 2 2-.906 2-2-.906-2-2-2m16-8c-1.094 0-2 .906-2 2s.906 2 2 2 2-.906 2-2-.906-2-2-2" clip-rule="evenodd"/></g><defs><clipPath id="a"><path fill="#fff" d="M0 0h32v32H0z"/></clipPath></defs></svg>
